material/.icons/material/arrow-collapse.svg

<svg xmlns="http://www.w3.org/2000/svg" viewBox="0 0 24 24"><path d="M19.5 3.09L15 7.59V4h-2v7h7V9h-3.59l4.5-4.5-1.41-1.41M4 13v2h3.59l-4.5 4.5 1.41 1.41 4.5-4.5V20h2v-7H4z"/></svg>

<?xml version="1.0" encoding="UTF-8"?><!DOCTYPE svg PUBLIC "-//W3C//DTD SVG 1.1//EN" "http://www.w3.org/Graphics/SVG/1.1/DTD/svg11.dtd"><svg xmlns="http://www.w3.org/2000/svg" xmlns:xlink="http://www.w3.org/1999/xlink" version="1.1" id="mdi-arrow-collapse" width="24" height="24" viewBox="0 0 24 24"><path d="M19.5,3.09L15,7.59V4H13V11H20V9H16.41L20.91,4.5L19.5,3.09M4,13V15H7.59L3.09,19.5L4.5,20.91L9,16.41V20H11V13H4Z" /></svg>
